!!!!SEGMENT: pl-wtm--r-1338_stefani-jozef--polonez.krn
!!!cenid: 18xx:2401
!!!COM: Stefani, JÃ³zef
!!!COM-rismid: pe30024097
!!!CDT: 1800/04/16-1876/03/19
!!!CNT: Polish
!!!OTL: Polonez
!!!PDT:
!!!AGN: Secular; Polonaise
!!!SMS-siglum: PL-Wtm
!!!SMS-shelfmark: R 1338
!!!SMS-shelfwork: W
!!!SMS-variant:
!!!SMS-altvar:
!!!NIFC-rismid: 1001119024
!!!URL-scan: http://repozytorium.nifc.pl/skany/pl-wtm-nut--r1338
!!!ONB-nifc:
!!!AIN: 1 piano
!!!key:
**kern	**kern	**dynam
*part1	*part1	*part1
*staff2	*staff1	*
*Ipiano	*Ipiano	*
*I"[Piano]	*I"[Piano]	*
*clefF4	*clefG2	*
*k[f#c#]	*k[f#c#]	*
*D:	*D:	*
*M3/4	*M3/4	*
*>[A,B,A,B,C,B,D,E,D,E,F,E,A,B,A,B,C,B]	*>[A,B,A,B,C,B,D,E,D,E,F,E,A,B,A,B,C,B]	*
=1	=1	=1
*>A	*>A	*
*2\right	*2\right	*
!	!LO:TX:a:t=P:problem	!
!	!LO:TX:a:i:t=Polonez	!LO:DY:b:rj
16D\LL	16d/LL	f
16C#\	16c#/	.
16D\	16d/	.
16E\JJ	16e/JJ	.
16F#\LL	16f#/LL	.
16E\	16e/	.
16F#\	16f#/	.
16G\JJ	16g/JJ	.
16A\LL	16a/LL	.
16G#X\	16g#X/	.
16A\	16a/	.
16B\JJ	16b/JJ	.
=2	=2	=2
8A\	8a/	.
8A 8F# 8D\	16dd\LL	.
.	16ee\JJ	.
*tremolo	*	*
8AL 8F# 8D\	4.ff#\	.
8A 8F# 8D\	.	.
8A 8F# 8D\	.	.
8AJ 8F# 8D\	8dd\	.
*Xtremolo	*	*
=3	=3	=3
!LO:TX:t=P:problem=mixed beam	!	!
8AA#X/L	8cc#\	.
8eJ 8c# 8F#\	16ff#LL 16f#/	.
.	16ff#JJ 16f#/	.
!LO:TX:t=P:problem=mixed beam	!	!
8FF#/L	4.ff# 4.f#/	.
8eJ 8c# 8F#\	.	.
!LO:TX:t=P:problem=mixed beam	!	!
8AA#/L	.	.
8eJ 8c# 8F#\	8ee 8e/	.
!!LO:LB:g=original
=4	=4	=4
!LO:TX:t=P:problem=mixed beam	!	!
8BB/L	(>16dd\LL	.
.	16ee\	.
8dJ 8B 8F#\	16dd\	.
.	16cc#\JJ	.
*tremolo	*	*
8dL 8B 8F#\	4b\)	.
8d 8B 8F#\	.	.
8d 8B 8F#\	(>16b\LL	.
.	16cc#\	.
8dJ 8B 8F#\	16dd\	.
.	16ff#\JJ)	.
*Xtremolo	*	*
=5	=5	=5
!LO:TX:t=P:problem=mixed beam	!	!
8GG#X/L	(>16ee\LL	.
.	16ff#\	.
8eJ 8d 8B\	16ee\	.
.	16dd#X\JJ	.
!LO:TX:t=P:problem=mixed beam	!	!
8EE/L	8ee\L)	.
8eJ 8d 8B\	8b\	.
!LO:TX:t=P:problem=mixed beam	!	!
8GG#/L	8ee'>\	.
8eJ 8d 8B\	8ddn\J	.
=6	=6	=6
!LO:TX:t=P:problem=mixed beam	!	!
8AA/L	(>16cc#\LL	.
.	16dd\	.
8c# 8A 8E\	16cc#\	.
.	16b\JJ	.
8c#J 8A 8E\	8a\L)	.
8r	(>16ee\L	.
.	16dd\JJ)	.
8e 8c# 8G\	8cc#'>\L	.
8r	(>16gg\L	.
.	16ff#\JJ)	.
=7	=7	=7
8g 8e 8c# 8A\	8ee'>\L	.
8r	(>16bb\L	.
.	16aa\JJ)	.
4r	16gg'>\LL	.
.	16ff#'>\	.
.	16ee'>\	.
.	16dd'>\JJ	.
4r	16cc#'</LL	.
.	16b'</	.
.	16a'</	.
.	16g'</JJ	.
!!LO:LB:g=original
=8	=8	=8
4r	16f#'</LL	.
.	16e'</	.
.	16d'</	.
.	16c#'</JJ	.
8r	8d/L	.
16D/LL	16f#L 16d/	.
16D/JJ	16f#JJ 16d/	.
8D/L	8f#L 8d/	.
8BB/J	8g#XJ 8e 8d/	.
=9	=9	=9
8AA\L	8aL 8e 8c#/	.
(>16G#X\L	(<16g#X/L	.
16B\JJ	16b/JJ	.
8A\)	8a/)	.
8AA/L	8eeL 8cc# 8a'>\	.
8D/	8ff# 8dd 8a'>\	.
8F#/J	8aaJ 8dd 8a'>\	.
=10	=10	=10
8A\	8ee 8cc# 8a\	.
(>16G#X\LL	(<16g#X/LL	.
16B\J	16b/J	.
8A\J)	8a/J)	.
16AA/LL	16eeLL 16cc# 16a\	.
16AA/JJ	16eeJJ 16cc# 16a\	.
8D\L	8ffnL 8dd 8a\	.
8Fn\J	8aaJ 8dd 8a\	.
=11	=11	=11
8A\	8ee 8cc# 8a\	.
(>16G#X\LL	(<16g#X/LL	.
16B-X\JJ	16b-X/JJ	.
8A\)	8a/)	.
16ALL 16AA/	16eeLL 16cc# 16a\	.
16AJJ 16AA/	16eeJJ 16cc# 16a\	.
8B-XL 8BB-X\	8dd\L	.
8B-J 8BB-\	8gg#XJ 8dd\	.
!!LO:LB:g=original
=12	=12	=12
4A 4AA\	4aa 4cc#\	.
8r	4rcc	.
8g>L 8e>\	.	.
!	!LO:TX:t=P:problem=znak segno na koÅ„cu taktu	!
!	!LO:TX:t=[segno]	!
8f#> 8d>\	4rcc	.
8e>J 8A>\	.	.
=13||	=13||	=13||
*>B	*>B	*
!	!	!LO:DY:b:rj
8AL 8F# 8D\	8ff#L 8dd'>\	p
8AJ 8AA\	(>16ee#XL 16cc#\	.
.	16ff#JJ 16dd\)	.
*rep	*	*
8AL 8F# 8D\	8ff#L 8dd'>\	.
8AJ 8AA\	(>16ee#L 16cc#\	.
.	16ff#JJ 16dd\)	.
*Xrep	*	*
*rep	*	*
8AL 8F# 8D\	8ff#L 8dd'>\	.
8AJ 8AA\	8aaJ 8ff#'>\	.
*Xrep	*	*
=14	=14	=14
!LO:TX:t=P:problem=mixed beam	!	!
8AL 8G 8E 8C#\	(>16aaLL 16ff#\	.
.	16gg 16ee\	.
8AA/J	16ff# 16dd#X\	.
.	16ggJJ 16ee\)	.
*rep	*	*
!LO:TX:t=P:problem=mixed beam	!	!
8AL 8G 8E 8C#\	4.ee 4.cc#\	.
8AA/J	.	.
*Xrep	*	*
*rep	*	*
!LO:TX:t=P:problem=mixed beam	!	!
8AL 8G 8E 8C#\	.	.
8AA/J	8ff# 8ddn\	.
*Xrep	*	*
=15	=15	=15
!LO:TX:t=P:problem=mixed beam	!	!
8AL 8G 8E 8C#\	8ggL 8ee'>\	.
8AA/J	(>16ff#L 16dd#X\	.
.	16ggJJ 16ee\)	.
*rep	*	*
!LO:TX:t=P:problem=mixed beam	!	!
8AL 8G 8E 8C#\	8ggL 8ee'>\	.
8AA/J	(>16ff#L 16dd#\	.
.	16ggJJ 16ee\)	.
*Xrep	*	*
*rep	*	*
!LO:TX:t=P:problem=mixed beam	!	!
8AL 8G 8E 8C#\	8ggL 8ee'>\	.
8AA/J	8bbJ 8gg'>\	.
*Xrep	*	*
!!LO:LB:g=original
=16	=16	=16
8AL 8F# 8D\	(>16bbLL 16gg\	.
.	16aa 16ff#\	.
8AJ 8AA\	16gg#X 16ee#X\	.
.	16aaJJ 16ff#\)	.
4A 4F# 4D\	8.ff#L 8.dd\	.
.	16aa|>\Jk	.
4r	8.aaT>\L	.
.	(>32gg#X\LL	.
.	32aa\JJJ)	.
=17	=17	=17
*tremolo	*	*
!	!	!LO:DY:b:rj
8dL 8A 8F#\	(>16ddd\LL	f
.	16ccc#\)	.
8d 8A 8F#\	16bb'>\	.
.	16aa'>\JJ	.
8d 8A 8F#\	(>16bb\LL	.
.	16aa\)	.
8d 8A 8F#\	16gg'>\	.
.	16ff#'>\JJ	.
8d 8A 8F#\	(>16gg\LL	.
.	16ff#\)	.
8dJ 8A 8F#\	16ee'>\	.
.	16dd'>\JJ	.
=18	=18	=18
8eL 8d 8B 8G\	(>16cc#\LL	.
.	16b\)	.
8e 8d 8B 8G\	16cc#'>\	.
.	16dd'\JJ	.
8e 8d 8B 8G\	16ee'>\LL	.
.	16ff#'\	.
8eJ 8d 8B 8G\	16gg'>\	.
.	16aa'\JJ	.
*Xtremolo	*	*
4e#X 4d 4B 4G#X\	4bb^<\	.
=19	=19	=19
4f# 4d 4A\	(>8.aa\L	.
.	32ff#\LL	.
.	32dd\JJJ)	.
4f# 4d 4A\	4a/	.
4g 4e 4A\	4cc#\	.
!!LO:LB:g=original
=20	=20	=20
8f# 8d\	8dd'>\L	.
8r	(>16ff#L 16a\	.
.	16eeJJ 16g\)	.
8r	(>4ee 4cc# (<4g\	.
8AL 8AA\	.	.
8dJ 8D\	8dd 8f#/))	.
!LO:TX:i:b:t=fine	!LO:TX:t=P:problem=fermata nad kreskÄ… taktowÄ…	!
8r	8r	.
=21:|!	=21:|!>	=21:|!
*>C	*>C	*
!LO:TX:t=P:problem=mixed beam	!	!LO:DY:b
8AA/L	4.ee 4.cc#\	mf
8c#J 8A 8E\	.	.
*rep	*	*
!LO:TX:t=P:problem=mixed beam	!	!
8AA/L	.	.
8c#J 8A 8E\	16cc#LL 16a'>\	.
.	16cc#JJ 16a'>\	.
*Xrep	*	*
*rep	*	*
!LO:TX:t=P:problem=mixed beam	!	!
8AA/L	8eeL 8cc#'>\	.
8c#J 8A 8E\	8cc#J 8a'>\	.
*Xrep	*	*
=22	=22	=22
8EL 8EE\	8eeL 8cc#'>\	.
8dJ 8B 8G#X 8E\	8ddJ 8b'>\	.
*rep	*	*
8EL 8EE\	(>4.b 4.g#X/	.
8dJ 8B 8G#X 8E\	.	.
*Xrep	*	*
*rep	*	*
8EL 8EE\	.	.
8dJ 8B 8G#X 8E\	8dd 8b\)	.
*Xrep	*	*
=23	=23	=23
8EL 8EE\	4.ff# 4.dd\	.
8BJ 8G#X 8E\	.	.
*rep	*	*
8EL 8EE\	.	.
8BJ 8G#X 8E\	16ddLL 16b'>\	.
.	16ddJJ 16b'>\	.
*Xrep	*	*
*rep	*	*
8EL 8EE\	8ff#L 8dd'>\	.
8BJ 8G#X 8E\	8ddJ 8b'>\	.
*Xrep	*	*
!!LO:PB:g=original
=24	=24	=24
8AA\L	8ff#L 8dd'>\	.
8c#J 8A 8E\	8eeJ 8cc#'>\	.
*rep	*	*
8AA\L	4cc# 4a'>\	.
8c#J 8A 8E\	.	.
*Xrep	*	*
*rep	*	*
8AA\L	8eeL 8cc#'>\	.
8c#J 8A 8E\	(>16ff#\L	.
.	16gg#X\JJ)	.
*Xrep	*	*
=25	=25	=25
!	!	!LO:DY:b
8C#\L	8aa'>\L	f
8AJ 8E\	(>16ccc#\L	.
.	16bb\JJ)	.
*rep	*	*
8C#\L	8aa\L	.
8AJ 8E\	8gg#X'>\	.
*Xrep	*	*
*rep	*	*
8C#\L	8ff#'>\	.
8AJ 8E\	8ee'>\J	.
*Xrep	*	*
=26	=26	=26
*^	*	*
!	!LO:N:vis=2	!	!
2D/	8D\L	(>8ee#X\L	.
.	8A 8F#\	8ff#\J)	.
.	8A 8F#\	4.aa 4.a\	.
.	8AJ 8F#\	.	.
4D#X/	8D#\L	.	.
.	8B#XJ 8A 8F#\	8ff# 8b#X 8a^>\	.
=27	=27	=27	=27
4E/	8E\L	8eeL 8cc# 8a'>\	.
.	8c#J 8A\	(>16aa\L	.
.	.	16ccc#\JJ)	.
*rep	*rep	*	*
4E/	8E\L	8eee'>\L	.
.	8c#J 8A\	(>16aa\L	.
.	.	16ccc#\JJ)	.
*Xrep	*Xrep	*	*
4E/	8E\L	8ee'>\L	.
.	8dJ 8B\	8gg#X'>\J	.
*v	*v	*	*
!!LO:LB:g=original
=28	=28	=28
8AA\L	(>16aa\LL	.
.	16bb\)	.
8c# 8A 8E\	16ccc#'>\	.
.	16ddd'>\JJ	.
8c# 8A 8E\	8eee\L	.
8c#J 8A 8E\	8ddd#X\J	.
.	(<8qfff#/	.
8AA\L	8eee\L)	.
8c#J 8A 8E\	8ccc#'>\J	.
=29	=29	=29
*^	*	*
!	!LO:N:vis=2	!	!
2D/	8D\L	(>16bb\LL	.
.	.	16ddd\JJ)	.
.	8B 8F#\	4ff#\	.
.	8B 8F#\	.	.
.	8BJ 8F#\	8bb'>\L	.
4E/	8E\L	8gg#X'>\	.
.	8dJ 8B 8G#X\	8ee'>\J	.
=30	=30	=30	=30
4AA/	8AA\L	(>16aa\LL	.
.	.	16bb\)	.
.	8c# 8A 8E\	16ccc#'>\	.
.	.	16ddd'>\JJ	.
4ryy	8c# 8A 8E\	8eee\L	.
.	8c#J 8A 8E\	8ddd#X\J	.
.	.	(<8qfff#/	.
8AA\L	4ryy	8eee\L)	.
8c#J 8A 8E\	.	8ccc#'>\J	.
!!LO:LB:g=original
=31	=31	=31	=31
!	!LO:N:vis=2	!	!
2D/	8D\L	(>16bb\LL	.
.	.	16ddd\JJ)	.
.	8B 8F#\	4ff#\	.
.	8B 8F#\	.	.
.	8BJ 8F#\	(>16ccc#\LL	.
.	.	16bb\J)	.
4E/	8E\L	8gg#X'>\	.
.	8dJ 8B 8G#X\	8ee'>\J	.
*v	*v	*	*
=32	=32	=32
!	!LO:TX:t=P:problem=mixed beam	!
8c#L 8A\	8aa\L	.
16A\L	16a/L	.
16A\JJ	16a/JJ	.
8A\L	8a/L	.
16A\L	16a/L	.
16A\JJ	16a/JJ	.
8A\L	8a/L	.
8A\J	8a/J	.
=33	=33	=33
!	!	!LO:DY:b:rj
4.B-X 4.BB-X\	4.gg 4.dd 4.g\	ff
16B-LL 16BB-\	16ggLL 16dd 16g\	.
16B-JJ 16BB-\	16ggJJ 16dd 16g\	.
16B-LL 16BB-\	16ggLL 16dd 16g\	.
16B- 16BB-\	16gg 16dd 16g\	.
16B- 16BB-\	16gg 16dd 16g\	.
16B-JJ 16BB-\	16ggJJ 16dd 16g\	.
!!LO:LB:g=original
=34	=34	=34
8A 8AA\	8ee 8cc# 8a\	.
16A\LL	16a/LL	.
16A\JJ	16a/JJ	.
8A\L	8a/L	.
16A\L	16a/L	.
16A\JJ	16a/JJ	.
8A\L	8a/L	.
8A\J	8a/J	.
=35	=35	=35
4.B-X 4.BB-X\	4.gg 4.dd 4.g\	.
16B-LL 16BB-\	16ggLL 16dd 16g'>\	.
16B-JJ 16BB-\	16ggJJ 16dd 16g'>\	.
*tremolo	*tremolo	*
!	!LO:TX:t=P:problem=4 kropki nad akordem	!
16B-LL 16BB-\	16ggLL 16dd 16g'>\	.
16B- 16BB-\	16gg 16dd 16g'>\	.
16B- 16BB-\	16gg 16dd 16g'>\	.
16B-JJ 16BB-\	16ggJJ 16dd 16g'>\	.
*Xtremolo	*Xtremolo	*
=36	=36	=36
8A 8AA/	8ee 8cc# 8a\	.
16A\LL	16a/LL	.
16A\JJ	16a/JJ	.
8A\	4a/	.
8g>L 8e>\	.	.
!	!LO:TX:t=P:problem=znak segno na koÅ„cu taktu	!
!	!LO:TX:t=[segno]	!
8f#> 8d>\	4rcc	.
!LO:TX:i:b:t=D'al segno al fine ð„\ne poi Trio.	!	!
8e>J 8A>\	.	.
!!LO:PB:g=original
=37||	=37||	=37||
*>D	*>D	*
*k[f#]	*k[f#]	*
*M3/4	*M3/4	*
!	!LO:TX:t=P:problem=kolejnoÅ›Ä‡ znakÃ³w ccn ff#	!
!LO:TX:t=P:problem=kolejnoÅ›Ä‡ znakÃ³w Cn Fn	!LO:TX:i:a:t=Trio.	!LO:DY:b:rj
8GL 8GG\	8gL 8B/	f
16D\L	16d/L	.
16D\JJ	16d/JJ	.
8GL 8GG\	8gL 8B/	.
8D\	8d/	.
8G 8GG\	8g 8B/	.
8D\J	8d/J	.
=38	=38	=38
8GL 8GG\	8gL 8B/	.
16D\L	16d/L	.
16D\JJ	16d/JJ	.
8GL 8GG\	8gL 8B/	.
8D\	8d/	.
8G 8GG\	8g 8B/	.
!	!LO:TX:t=P:problem=znak segno na koÅ„cu taktu	!
!	!LO:TX:t=[segno]	!
8D\J	8d/J	.
=39||	=39||	=39||
*>E	*>E	*
!	!	!LO:DY:b:rj
8GL 8GG\	(<16b/LL	p
.	16dd/J)	.
16D\L	8g'</J	.
16D\JJ	.	.
8GL 8GG\	4.b/	.
8D\J	.	.
*rep	*	*
8GL 8GG\	.	.
8D\J	8b/	.
*Xrep	*	*
!!LO:LB:g=original
=40	=40	=40
8GL 8GG\	(>16bb\LL	.
.	16ddd\J)	.
16D\L	8gg'>\J	.
16D\JJ	.	.
8GL 8GG\	4.bb\	.
8D\J	.	.
*rep	*	*
8GL 8GG\	.	.
8D\J	8bb\	.
*Xrep	*	*
=41	=41	=41
*^	*	*
!	!LO:N:vis=2	!	!
2C/	8C\L	(>16bb\LL	.
.	.	16aa\JJ)	.
.	8A 8E\	4ee\	.
.	8A 8E\	.	.
.	8AJ 8E\	(>16bb\LL	.
.	.	16aa\J)	.
4D/	8D\L	8ff#'>\	.
.	8cJ 8A 8F#\	8dd'>\J	.
*v	*v	*	*
=42	=42	=42
8GG\L	(>16gg\LL	.
.	16aa\)	.
8B 8G 8D\	16bb'>\	.
.	16ccc'>\JJ	.
!	!	!LO:DY:b
8B 8G 8D\	8ddd\L	f
!	!LO:TUP:a:problem=klamra Å‚ukowa	!
8BJ 8G 8D\	24ddd\L	.
.	24ccc\	.
.	24bb\JJ	.
4A 4F# 4D\	4aa\	.
=43	=43	=43
!	!	!LO:DY:b
8GL 8GG\	(>16b/LL	p
.	16dd/J)	.
16D\L	8g'>/J	.
16D\JJ	.	.
8GL 8GG\	4.b/	.
8D\J	.	.
*rep	*	*
8GL 8GG\	.	.
8D\J	8b/	.
*Xrep	*	*
!!LO:LB:g=original
=44	=44	=44
8E 8EE/	(>16ee\LL	.
.	16gg\J)	.
8BL 8G 8E\	8b'>\J	.
8B 8G 8E\	4.ee\	.
8BJ 8G 8E\	.	.
8BL 8G 8E\	.	.
!	!	!LO:DY:b
8c#XJ 8A 8G 8E-X\	(>16ff#\LL	sf
.	16gg\JJ)	.
=45	=45	=45
8dL 8B 8G 8D\	8dd'>\L	.
16dL 16B 16G 16D\	(>16gg\L	.
16dJJ 16B 16G 16D\	16bb\JJ	.
8dL 8B 8G 8D\	8ddd\L)	.
8dJ 8B 8G 8D\	8ddd\	.
8dL 8A 8F# 8D\	8ccc\	.
8cJ 8A 8F# 8D\	8aa\J	.
=46	=46	=46
8BL 8G\	8gg'>\L	.
8cJ 8F# 8D\	(>16bbL 16dd\	.
.	16aaJJ 16cc\)	.
8r	(>4aa 4cc\	.
8dL 8A 8F# 8D\	.	.
8dJ 8B 8G\	8gg 8b\)	.
!LO:TX:i:b:t=fine	!LO:TX:t=P:problem=fermata nad kreskÄ… taktowÄ…	!
8r	8r	.
=47:|!	=47:|!;>	=47:|!
*>F	*>F	*
!	!	!LO:DY:b:rj
(>16E\LL	4ee 4b 4g\	f
16D#X\	.	.
16E\	.	.
16D#\JJ	.	.
16E\LL	4gg 4b 4g\	.
16D#\	.	.
16E\	.	.
16F#\JJ)	.	.
(>16G\LL	4ee 4b 4g\	.
16F#\	.	.
16G\	.	.
16E\JJ)	.	.
!!LO:LB:g=original
=48	=48	=48
(<16BB/LL	8dd#X 8b 8f#/	.
16AA#X/	.	.
16BB/	16bbLL 16dd# 16b\	.
16C#X/JJ	16bbJJ 16dd# 16b\	.
8D#X/L)	8bbL 8dd# 8b\	.
8BB'</	8ff# 8dd# 8b\	.
8D#'</	8bb 8ff# 8b\	.
8BB'</J	8aaJ 8dd# 8b\	.
=49	=49	=49
*	*^	*
(>16E\LL	(>16gg/LL	8b\L	.
16D#X\	16aa/	.	.
16E\	16gg/	8b\J	.
16D#\JJ	16ff#/JJ	.	.
16E\LL	4gg 4b\)	4ryy	.
16D#\	.	.	.
16E\	.	.	.
16F#\JJ)	.	.	.
(>16G\LL	4ee 4b 4g\	4ryy	.
16F#\	.	.	.
16G\	.	.	.
16E\JJ)	.	.	.
*	*v	*v	*
=50	=50	=50
(<16BB/LL	8dd#X 8b 8f#/	.
16AA#X/	.	.
16BB/	16bbLL 16dd# 16b\	.
16C#X/JJ	16bbJJ 16dd# 16b\	.
8D#X/L)	8bbL 8dd# 8b\	.
8BB'</	8ff# 8dd# 8b\	.
8D#'</	8bb 8ff# 8b\	.
8BB'</J	8aaJ 8dd# 8b\	.
!!LO:LB:g=original
=51	=51	=51
*	*^	*
(>16E\LL	16gg/LL	8b\L	.
16D#X\	16aa/	.	.
16E\	16gg/	8b\J	.
16D#\JJ	16ff#/JJ	.	.
16E\LL	16gg/LL	4b\	.
16D#\	16ff#/	.	.
16E\	16ee/	.	.
16F#\JJ)	16dd#X/JJ	.	.
(>16G\LL	16ee/LL	4b\	.
16F#\	16ff#/	.	.
16G\	16ee/	.	.
16E\JJ)	16gg/JJ	.	.
*	*v	*v	*
=52	=52	=52
(>16Dn\LL	8ff#L 8dd 8a\	.
16C#X\	.	.
16D\	16dddL 16ff# 16dd\	.
16E\JJ	16dddJJ 16ff# 16dd\	.
8F#\L)	8dddL 8ff# 8dd\	.
8D'>\	8aaJ 8ff# 8dd\	.
8F#'>\	8dddL 8aa 8dd\	.
8D'>\J	8cccJ 8ff# 8dd\	.
=53	=53	=53
(>8qG/	.	.
16B\LL	(>16bb\LL	.
16c\	16ccc\	.
16B\	16bb\	.
16A\JJ)	16aa\JJ)	.
(>16G\LL	(>16gg\LL	.
16A\	16aa\	.
16G\	16gg\	.
16F#\JJ)	16ff#\JJ)	.
(<16E/LL	(>16ee\LL	.
16D/)	16dd\)	.
16C'</	16cc'>\	.
16BB'</JJ	16b'>\JJ	.
!!LO:LB:g=original
=54	=54	=54
8Cn/L	8a#X\L	.
16CL 16CCn/	16ggL 16ee 16a# 16g\	.
16CJJ 16CC/	16ggJJ 16ee 16a# 16g\	.
4C 4CC/	4gg 4ee 4a# 4g\	.
4C 4CC/	4a# 4f# 4e/	.
=55	=55	=55
(<8qBBB/	.	.
8.BB/L)	4b 4f# 4d#X/	.
16AA#X/Jk	.	.
8BB/L	4bb 4ff# 4dd#X 4b\	.
8D#X/J	.	.
8E\L	4gg 4ee 4b\	.
8G\J	.	.
=56	=56	=56
!LO:TX:t=P:problem=mixed beam	!	!
8B\L	4ff# 4dd#X 4b\	.
(<16BB/L	.	.
16AA#X/JJ	.	.
8BB/L)	4bb 4ff# 4dd# 4b\	.
8D#X/J	.	.
8E\L	4gg 4ee 4b\	.
8G\J	.	.
!!LO:PB:g=original
=57	=57	=57
8B 8BB\	8ff# 8dd#X 8b\	.
16B\LL	16b\LL	.
16B\J	16b\J	.
8B\J	8b\J	.
8BL 8BB\	8b'>\L	.
8A 8AA\	8cc'>\	.
8DJ 8DD\	8ff#J 8ddn 8cc 8a'>\	.
=58	=58	=58
2.r	4r	.
.	8r	.
.	8d/L	.
.	8.g/	.
!	!LO:TX:i:b:t=D'al segno al fine ð„\net da capo Polonez	!
!	!LO:TX:t=P:problem=znak segno na koÅ„cu taktu	!
!	!LO:TX:t=[segno]	!
.	16a/Jk	.
==	==	==
*-	*-	*-
!!!system-decoration: {(s1,s2)}
!!!RDF**kern: | = vertical stroke
!!!RDF**kern: > = above
!!!RDF**kern: < = below
!!!EED: Antoni SzymaÅ„ski
!!!EST: 2021-06-12
!!!ENC: Marcin Jachim
!!!END: 2021-06-10
